X: 7765
T: Comb Your Hair And Curl It
R: slip jig
M: 9/8
K: Edorian
|:B2E E2F G2A|B2e ece dBA|B2E E2F G2A|B=cB A2G FED:|
g2e efe e2f|g2e efg afd|g2e efe e2c|d2B A2G FED|
g2e efe e2f|g2e efg afd|gfg agf g2e|d2B A2G FED||

